symbols/web/slideshow/materialsymbolsrounded/slideshow_wght300gradN25fill1_20px.svg

<svg xmlns="http://www.w3.org/2000/svg" height="20" width="20"><path d="m9.271 12.583 3.041-1.979q.188-.104.25-.26.063-.156.063-.344 0-.188-.063-.344-.062-.156-.25-.281L9.271 7.417q-.375-.229-.761-.032-.385.198-.385.677v3.876q0 .479.385.677.386.197.761-.032Zm-4.709 4.355q-.624 0-1.062-.438-.438-.438-.438-1.062V4.562q0-.624.438-1.062.438-.438 1.062-.438h10.876q.624 0 1.062.438.438.438.438 1.062v10.876q0 .624-.438 1.062-.438.438-1.062.438Z"/></svg>

<svg xmlns="http://www.w3.org/2000/svg" height="20" width="20"><path d="M9.271 12.583 12.312 10.604Q12.5 10.5 12.562 10.344Q12.625 10.188 12.625 10Q12.625 9.812 12.562 9.656Q12.5 9.5 12.312 9.375L9.271 7.417Q8.896 7.188 8.51 7.385Q8.125 7.583 8.125 8.062V11.938Q8.125 12.417 8.51 12.615Q8.896 12.812 9.271 12.583ZM4.562 16.938Q3.938 16.938 3.5 16.5Q3.062 16.062 3.062 15.438V4.562Q3.062 3.938 3.5 3.5Q3.938 3.062 4.562 3.062H15.438Q16.062 3.062 16.5 3.5Q16.938 3.938 16.938 4.562V15.438Q16.938 16.062 16.5 16.5Q16.062 16.938 15.438 16.938Z"/></svg>
